X:1
T:I Will Set my Ship in Order
M:3/4
L:1/8
K:F
 G2| B3/2 c/2 d2 d2| cf d2 GG| B3/2 c/2 d2 d2| B3/2 G/2 A2 A2| d3/2 G/2 G2 FG|\
 AG F2 DE| FG A2 dc| AA G2||
